symbols/be/PVA-{120}.svg

<?xml version="1.0" encoding="UTF-8" standalone="no"?>
<!-- Initially created with Inkscape, optimized by hand -->

<svg
   version="1.1"
   width="20"
   height="17.320995"
   id="svg1"
   xmlns="http://www.w3.org/2000/svg"
   xmlns:svg="http://www.w3.org/2000/svg">
  <defs
     id="defs1" />
  <path
     id="Fond"
     d="M 20,-1.2580566e-6 H 3.1098633e-6 L 10.000003,17.320999 Z"
     fill="#edd827"
     style="stroke-width:0.1" />
  <path
     d="m 8.8458641,9.2268437 v -6.389353 c 0,-0.106667 -0.032,-0.192001 -0.106667,-0.266668 -0.064,-0.07467 -0.362667,-0.149334 -0.501335,-0.01067 l -1.429337,1.429337 c -0.149334,0.149334 -0.096,0.426668 0.01067,0.533335 0.096,0.106667 0.352001,0.128001 0.490669,-0.01067 l 0.821335,-0.832003 v 5.557351 c 0,0.192001 0.170668,0.352001 0.362668,0.352001 0.192001,0 0.352001,-0.16 0.352001,-0.362668 z m 4.4373379,0.01067 c 0,-0.192001 -0.160001,-0.362668 -0.352002,-0.362668 h -2.208007 l 2.304008,-3.669345 c 0.192,-0.320001 0.256001,-0.576002 0.256001,-0.949336 0.02133,-1.06667 -0.789336,-1.738672 -1.770673,-1.781339 -0.778669,-0.02133 -1.312004,0.330668 -1.7280049,1.00267 -0.08533,0.149334 -0.128001,0.565335 0.2986669,0.597335 0.128001,0 0.234668,-0.04267 0.298668,-0.16 0.277334,-0.490669 0.533335,-0.736003 1.13067,-0.725336 0.736003,0.01067 1.056004,0.480001 1.06667,1.06667 0,0.224001 -0.032,0.352001 -0.149333,0.565335 l -2.6453419,4.20268 c -0.04267,0.07467 -0.05333,0.128 -0.05333,0.213334 0.01067,0.192001 0.160001,0.341334 0.3520009,0.352001 H 12.9312 c 0.192001,0 0.352002,-0.16 0.352002,-0.352001 z"
     id="text1"
     style="font-size:10.6667px;font-family:Isonorm;-inkscape-font-specification:'Isonorm, Normal';fill-rule:evenodd;stroke-width:0.08"
     aria-label="12" />
</svg>

<?xml version="1.0" encoding="UTF-8"?>
<svg xmlns="http://www.w3.org/2000/svg" xmlns:xlink="http://www.w3.org/1999/xlink" width="20" height="17.320995" viewBox="0 0 20 17.320995">
<path fill-rule="nonzero" fill="rgb(92.941176%, 84.705882%, 15.294118%)" fill-opacity="1" d="M 20 0 L 0 0 L 10 17.320312 Z M 20 0 "/>
<path fill-rule="evenodd" fill="rgb(0%, 0%, 0%)" fill-opacity="1" d="M 8.847656 9.226562 L 8.847656 2.835938 C 8.847656 2.730469 8.8125 2.644531 8.738281 2.570312 C 8.675781 2.496094 8.375 2.421875 8.238281 2.558594 L 6.808594 3.988281 C 6.660156 4.140625 6.710938 4.417969 6.820312 4.523438 C 6.914062 4.628906 7.171875 4.652344 7.308594 4.511719 L 8.132812 3.679688 L 8.132812 9.238281 C 8.132812 9.429688 8.300781 9.589844 8.492188 9.589844 C 8.6875 9.589844 8.847656 9.429688 8.847656 9.226562 Z M 13.28125 9.238281 C 13.28125 9.046875 13.125 8.875 12.929688 8.875 L 10.722656 8.875 L 13.027344 5.207031 C 13.21875 4.886719 13.28125 4.628906 13.28125 4.257812 C 13.304688 3.191406 12.492188 2.515625 11.511719 2.476562 C 10.734375 2.453125 10.199219 2.804688 9.785156 3.476562 C 9.699219 3.625 9.65625 4.042969 10.082031 4.074219 C 10.210938 4.074219 10.316406 4.03125 10.382812 3.914062 C 10.660156 3.425781 10.914062 3.179688 11.511719 3.191406 C 12.25 3.199219 12.570312 3.667969 12.578125 4.257812 C 12.578125 4.480469 12.546875 4.609375 12.429688 4.820312 L 9.785156 9.023438 C 9.742188 9.097656 9.730469 9.152344 9.730469 9.238281 C 9.742188 9.429688 9.890625 9.578125 10.082031 9.589844 L 12.929688 9.589844 C 13.125 9.589844 13.28125 9.429688 13.28125 9.238281 Z M 13.28125 9.238281 "/>
</svg>
